templates/business-template/img/phone.svg

<!-- Generated by IcoMoon.io -->
<svg version="1.1" xmlns="http://www.w3.org/2000/svg" width="16" height="16" viewBox="0 0 16 16">
<title>phone</title>
<path fill="#fe504f" d="M10.667 2h-5.333c-0.733 0-1.333 0.6-1.333 1.333v9.333c0 0.733 0.6 1.333 1.333 1.333h5.333c0.733 0 1.333-0.6 1.333-1.333v-9.333c0-0.733-0.6-1.333-1.333-1.333zM8.667 13.333h-1.333v-1.333h1.333v1.333zM10.667 11.333h-5.333v-8h5.333v8z"></path>
</svg>

<svg xmlns="http://www.w3.org/2000/svg" width="16" height="16"><path fill="#fe504f" d="M10.667 2H5.334c-.733 0-1.333.6-1.333 1.333v9.333c0 .733.6 1.333 1.333 1.333h5.333c.733 0 1.333-.6 1.333-1.333V3.333C12 2.6 11.4 2 10.667 2zm-2 11.333H7.334V12h1.333v1.333zm2-2H5.334v-8h5.333v8z"/></svg>
